!!!COM: Aaron Copland
!!!OTL: [T702_Cop-w1v2p66h47m1-7]
**kern	**dynam	**kern	**dynam	**kern	**dynam	**kern	**kern	**dynam	**kern	**dynam	**kern	**dynam	**kern	**dynam	**kern	**dynam	**kern	**dynam
*grp:A	*grp:A	*grp:B	*grp:B	*grp:B	*grp:B	*grp:B	*grp:B	*grp:B	*grp:A	*grp:A	*grp:B	*grp:B	*grp:B	*grp:B	*grp:B	*grp:B	*grp:B	*grp:B
*part9	*part9	*part8	*part8	*part7	*part7	*part6	*part6	*	*part5	*part5	*part4	*	*part3	*	*part2	*	*part1	*
*staff10	*	*staff9	*	*staff8	*	*staff7	*staff6	*	*staff5	*	*staff4	*	*staff3	*	*staff2	*	*staff1	*
*I"Contrabass	*	*I"Violoncello	*	*I"Viola	*	*I"Piano	*	*	*I"Timpani	*	*I"Tuba	*	*I"Trombone III	*	*I"Contrabassoon	*	*I"Bassoons I.II.	*
*I'Cb.	*	*I'Vc.	*	*I'Vla.	*	*I'Pno.	*	*	*I'Timp.	*	*I'Tba.	*	*I'Tbn.	*	*I'Cbsn.	*	*I'Bsn.	*
!!pagebreak:original
*clefF4	*	*clefF4	*	*clefC3	*	*clefF4	*clefF4	*	*clefF4	*	*clefF4	*	*clefF4	*	*clefF4	*	*clefF4	*
*Trd0c0	*	*	*	*	*	*	*	*	*	*	*	*	*	*	*Trd0c0	*	*	*
*k[]	*	*k[]	*	*k[]	*	*k[]	*k[]	*	*k[]	*	*k[]	*	*k[]	*	*k[]	*	*k[]	*
*M3/8	*	*M2/4	*	*M2/4	*	*M2/4	*M2/4	*	*M2/4	*	*M2/4	*	*M2/4	*	*M2/4	*	*M2/4	*
!!LO:REH:t=47
=	=	=	=	=	=	=	=	=	=	=	=	=	=	=	=	=	=	=
!LO:TX:b:i:t=marcato	!	!	!	!	!	!	!	!	!	!	!	!	!	!	!	!	!	!
!LO:TX:a:t=pizz.	!	!LO:TX:a:t=arco	!	!LO:TX:t=[[quarter]=112]	!	!	!	!LO:DY:ed=brack	!	!	!	!LO:DY:ed=brack	!	!LO:DY:ed=brack	!	!LO:DY:ed=brack	!LO:TX:t=[[quarter]=112]	!LO:DY:ed=brack
16ryy	4ryy	(64c#X^KLLL	mf	2r	.	16CC^	16C^	ff	16ryy	4ryy	16CC^	ff	16C^	ff	16C^	ff	16C^	ff
.	.	32.cnJJ)	.	.	.	.	.	.	.	.	.	.	.	.	.	.	.	.
16ryy	.	8C^	.	.	.	16r	16r	.	16ryy	.	16r	.	16r	.	16r	.	16r	.
16ryy	.	.	.	.	.	8r	8r	.	8ryy	.	8r	.	8r	.	8r	.	8r	.
16ryy	.	[16C^Jk	.	.	.	.	.	.	.	.	.	.	.	.	.	.	.	.
16ryy	.	16CLL]	.	.	.	4r	4r	.	16ryy	.	4r	.	4r	.	4r	.	4r	.
16ryy	.	16C'	.	.	.	.	.	.	16ryy	.	.	.	.	.	.	.	.	.
=	=	=-	=-	=-	=-	=-	=-	=-	=	=	=-	=-	=-	=-	=-	=-	=-	=-
16ryy	.	16D-X'	.	.	.	.	.	.	16ryy	.	.	.	.	.	.	.	.	.
16ryy	.	16E-X'JJ	.	.	.	.	.	.	16ryy	.	.	.	.	.	.	.	.	.
=-	=-	=	=	=	=	=	=	=	=-	=	=	=	=	=	=	=	=	=
16ryy	.	16BB-X'LL	.	2r	.	2r	2r	.	8ryy	.	2r	.	2r	.	2r	.	2r	.
16ryy	.	16C'	.	.	.	.	.	.	.	.	.	.	.	.	.	.	.	.
16ryy	.	16C'	.	.	.	.	.	.	16ryy	.	.	.	.	.	.	.	.	.
16ryy	.	(64c#X^KL	.	.	.	.	.	.	16ryy	.	.	.	.	.	.	.	.	.
.	.	32.cnJJJ)	.	.	.	.	.	.	.	.	.	.	.	.	.	.	.	.
=	=	=-	=-	=-	=-	=-	=-	=-	=	=	=-	=-	=-	=-	=-	=-	=-	=-
16ryy	.	(64c#X^KLLL	.	.	.	.	.	.	16ryy	.	.	.	.	.	.	.	.	.
.	.	32.cnJJ)	.	.	.	.	.	.	.	.	.	.	.	.	.	.	.	.
16ryy	.	8C^	.	.	.	.	.	.	16ryy	.	.	.	.	.	.	.	.	.
16ryy	.	.	.	.	.	.	.	.	8ryy	.	.	.	.	.	.	.	.	.
16ryy	.	[16C^Jk	.	.	.	.	.	.	.	.	.	.	.	.	.	.	.	.
=-	=-	=	=	=	=	=	=	=	=-	=	=	=	=	=	=	=	=	=
16ryy	.	16CLL]	.	2r	.	2r	2r	.	16ryy	.	2r	.	2r	.	2r	.	2r	.
16ryy	.	16C'	.	.	.	.	.	.	16ryy	.	.	.	.	.	.	.	.	.
=	=	=-	=-	=-	=-	=-	=-	=-	=	=	=-	=-	=-	=-	=-	=-	=-	=-
16ryy	.	16D-X'	.	.	.	.	.	.	16ryy	.	.	.	.	.	.	.	.	.
16ryy	.	16E-X'JJ	.	.	.	.	.	.	16ryy	.	.	.	.	.	.	.	.	.
16ryy	.	16En'LL	.	.	.	.	.	.	8ryy	.	.	.	.	.	.	.	.	.
16ryy	.	16G'J	.	.	.	.	.	.	.	.	.	.	.	.	.	.	.	.
16ryy	.	8G'J	.	.	.	.	.	.	16ryy	.	.	.	.	.	.	.	.	.
16ryy	.	.	.	.	.	.	.	.	16ryy	.	.	.	.	.	.	.	.	.
!!pagebreak:original
=	=	=	=	=	=	=	=	=	=	=	=	=	=	=	=	=	=	=
16ryy	.	16F#X'LL	.	2r	.	2r	2r	.	16ryy	.	2r	.	2r	.	2r	.	2r	.
16ryy	.	16D'	.	.	.	.	.	.	16ryy	.	.	.	.	.	.	.	.	.
16ryy	.	16C'	.	.	.	.	.	.	8ryy	.	.	.	.	.	.	.	.	.
16ryy	.	16E-X'JJ	.	.	.	.	.	.	.	.	.	.	.	.	.	.	.	.
16ryy	.	8FnL	.	.	.	.	.	.	16ryy	.	.	.	.	.	.	.	.	.
16ryy	.	.	.	.	.	.	.	.	16ryy	.	.	.	.	.	.	.	.	.
=	=	=-	=-	=-	=-	=-	=-	=-	=	=	=-	=-	=-	=-	=-	=-	=-	=-
16ryy	.	8D-XJ	.	.	.	.	.	.	16ryy	.	.	.	.	.	.	.	.	.
16ryy	.	.	.	.	.	.	.	.	16ryy	.	.	.	.	.	.	.	.	.
=	=	=	=	=	=	=	=	=	=	=	=	=	=	=	=	=	=	=
*M10/16	*	*M10/16	*	*M10/16	*	*M10/16	*M10/16	*	*M10/16	*	*M10/16	*	*M10/16	*	*M10/16	*	*M10/16	*
!LO:TX:t=P:problem:Cross-measure beaming not implemwnted yet	!	!	!	!	!	!	!	!	!LO:TX:t=P:problem:Cross-measure beaming not implemwnted yet	!	!	!	!	!	!	!	!	!
16ryy	.	16E^LL	.	8%5r	.	8%5r	8%5r	.	8ryy	.	8%5r	.	8%5r	.	8%5r	.	8%5r	.
16ryy	.	16CJJ	.	.	.	.	.	.	.	.	.	.	.	.	.	.	.	.
16ryy	.	16r	.	.	.	.	.	.	16ryy	.	.	.	.	.	.	.	.	.
16ryy	.	16F	.	.	.	.	.	.	16ryy	.	.	.	.	.	.	.	.	.
=	=	=-	=-	=-	=-	=-	=-	=-	=	=	=-	=-	=-	=-	=-	=-	=-	=-
16ryy	.	16D-X^	.	.	.	.	.	.	16ryy	.	.	.	.	.	.	.	.	.
16ryy	.	16r	.	.	.	.	.	.	16ryy	.	.	.	.	.	.	.	.	.
16ryy	.	16G^LL	.	.	.	.	.	.	8ryy	.	.	.	.	.	.	.	.	.
16ryy	.	16E-XJJ	.	.	.	.	.	.	.	.	.	.	.	.	.	.	.	.
16ryy	.	16r	.	.	.	.	.	.	16ryy	.	.	.	.	.	.	.	.	.
16ryy	.	16F#X	.	.	.	.	.	.	16ryy	.	.	.	.	.	.	.	.	.
=	=	=	=	=	=	=	=	=	=	=	=	=	=	=	=	=	=	=
*M2/4	*	*M2/4	*	*M2/4	*	*M2/4	*M2/4	*	*M2/4	*	*M2/4	*	*M2/4	*	*M2/4	*	*M2/4	*
!	!	!LO:TX:b:i:t=sub	!	!	!	!	!	!	!	!	!	!	!	!	!	!	!	!
16ryy	.	16D^	p	(64f#X^KLLL	mf	2r	2r	.	16ryy	.	2r	.	2r	.	2r	.	2r	.
.	.	.	.	32.fnJJ)	.	.	.	.	.	.	.	.	.	.	.	.	.	.
16ryy	.	16r	.	8F^	.	.	.	.	16ryy	.	.	.	.	.	.	.	.	.
16ryy	.	16E^LL	.	.	.	.	.	.	8ryy	.	.	.	.	.	.	.	.	.
16ryy	.	16C#XJJ	.	[16F^Jk	.	.	.	.	.	.	.	.	.	.	.	.	.	.
16ryy	.	16r	.	16FLL]	.	.	.	.	16ryy	.	.	.	.	.	.	.	.	.
16ryy	.	16E-XLL	.	16F'	.	.	.	.	16ryy	.	.	.	.	.	.	.	.	.
=	=	=-	=-	=-	=-	=-	=-	=-	=	=	=-	=-	=-	=-	=-	=-	=-	=-
16ryy	.	16Cn^JJ	.	16G-X'	.	.	.	.	16ryy	.	.	.	.	.	.	.	.	.
16ryy	.	16r	.	16A-X'JJ	.	.	.	.	16ryy	.	.	.	.	.	.	.	.	.
=-	=	=	=	=	=	=	=	=	=-	=	=	=	=	=	=	=	=	=
16ryy	.	16B^LL	.	16E-X'LL	.	2r	2r	.	8ryy	.	2r	.	2r	.	2r	.	2r	.
16ryy	.	16GJJ	.	16F'	.	.	.	.	.	.	.	.	.	.	.	.	.	.
16ryy	.	16r	.	16F'	.	.	.	.	16ryy	.	.	.	.	.	.	.	.	.
16ryy	.	16c	.	(64f#X^KL	.	.	.	.	16ryy	.	.	.	.	.	.	.	.	.
.	.	.	.	32.fnJJJ)	.	.	.	.	.	.	.	.	.	.	.	.	.	.
=	=	=-	=-	=-	=-	=-	=-	=-	=	=	=-	=-	=-	=-	=-	=-	=-	=-
16ryy	.	16A^	.	(64f#X^KLLL	.	.	.	.	16ryy	.	.	.	.	.	.	.	.	.
.	.	.	.	32.fnJJ)	.	.	.	.	.	.	.	.	.	.	.	.	.	.
16ryy	.	16r	.	8F^	.	.	.	.	16ryy	.	.	.	.	.	.	.	.	.
16ryy	.	16c#X^LL	.	.	.	.	.	.	8ryy	.	.	.	.	.	.	.	.	.
16ryy	.	16A#XJJ	.	[16F^Jk	.	.	.	.	.	.	.	.	.	.	.	.	.	.
=||	=||	=||	=||	=||	=||	=||	=||	=||	=||	=||	=||	=||	=||	=||	=||	=||	=||	=||
*-	*-	*-	*-	*-	*-	*-	*-	*-	*-	*-	*-	*-	*-	*-	*-	*-	*-	*-
!!!system-decoration: [(s1,s2)][(s3,s4)][(s5)][({(s6,s7)})][(s8,s9,s10)]
